build/assets/img/stage-design/image-element-11.svg

<svg width="222" height="180" viewBox="0 0 222 180" fill="none" xmlns="http://www.w3.org/2000/svg">
<g filter="url(#filter0_f)">
<path d="M66.0165 11.6935L2 26.0855L105.231 136.783C122.813 154.773 207.432 183.262 219.746 176.751L66.0165 11.6935Z" fill="url(#paint0_linear)"/>
</g>
<path d="M90.4384 32.6785C90.4845 32.6592 90.4845 32.6591 90.4844 32.6589L90.4841 32.6582L90.4829 32.6553L90.478 32.6436L90.4586 32.5973L90.3828 32.4164C90.3164 32.2576 90.219 32.0243 90.0947 31.7258C89.8461 31.1287 89.4903 30.2711 89.0613 29.2289C88.2033 27.1444 87.0526 24.3213 85.8815 21.3669C84.7104 18.4124 83.5191 15.327 82.58 12.7177C81.6402 10.1063 80.955 7.97703 80.7933 6.93187C80.4719 4.85413 81.5988 3.18877 82.8162 2.03793C83.4242 1.46309 84.0528 1.01869 84.5296 0.717967C84.7679 0.567647 84.9681 0.45333 85.1086 0.376659C85.1789 0.338325 85.2342 0.309408 85.2718 0.290114C85.2907 0.280466 85.3051 0.273225 85.3147 0.268415L85.3248 0.263428C86.2879 0.0146177 87.2947 -0.0170866 88.2717 0.170654C89.2503 0.358711 90.1744 0.762198 90.9763 1.3516L90.9762 1.35169L90.9789 1.3534C91.365 1.60108 91.841 2.12849 92.3798 2.86929C92.9174 3.6085 93.5139 4.55491 94.1417 5.63486C95.3971 7.79466 96.7757 10.4853 98.056 13.1136C99.3363 15.7417 100.518 18.3065 101.38 20.2145C101.81 21.1684 102.161 21.9581 102.404 22.5093C102.526 22.7848 102.62 23.0008 102.685 23.1479L102.758 23.3156L102.776 23.3585L102.781 23.3694L102.782 23.3721L102.783 23.3728C102.783 23.3729 102.783 23.373 102.828 23.3534L102.783 23.373L102.784 23.3757L102.829 23.3531C102.784 23.3757 102.784 23.3757 102.784 23.3758L102.784 23.3763L102.785 23.3783L102.789 23.3864L102.805 23.4185L102.869 23.545C102.925 23.6565 103.008 23.8216 103.115 24.0362C103.33 24.4655 103.642 25.0925 104.034 25.8838C104.817 27.4664 105.917 29.706 107.182 32.3337C109.711 37.5893 112.903 44.3971 115.551 50.6071L115.597 50.5875L115.551 50.6071C118.05 56.4613 119.126 59.5462 119.691 61.1681C119.817 61.5292 119.917 61.8177 120.003 62.0482C120.12 62.364 120.21 62.5751 120.299 62.714C120.39 62.8556 120.482 62.9269 120.604 62.9568C120.707 62.9819 120.829 62.9766 120.978 62.9701C120.996 62.9693 121.015 62.9685 121.034 62.9677C121.212 62.9604 121.438 62.9552 121.739 62.9886L121.772 62.9923L121.788 62.9638L121.745 62.9389L121.788 62.9638L121.788 62.9636L121.789 62.9629L121.79 62.9599L121.797 62.9478L121.825 62.9006C121.849 62.8592 121.886 62.7983 121.933 62.7206C122.027 62.5652 122.166 62.3425 122.341 62.0738C122.691 61.5362 123.189 60.8146 123.779 60.0781C124.369 59.3414 125.05 58.591 125.767 57.9951C126.484 57.3987 127.233 56.9608 127.959 56.8421C129.392 56.6332 130.842 56.5702 132.288 56.6542L132.291 56.6043L132.288 56.6542C133.604 56.7293 134.908 56.3567 135.984 55.5973C136.977 54.9028 138.276 54.0206 139.517 53.2872C140.138 52.9204 140.743 52.5913 141.288 52.3415C141.831 52.0925 142.311 51.924 142.684 51.8741C142.695 51.8745 142.705 51.8729 142.713 51.8713C142.725 51.8691 142.738 51.8656 142.752 51.8614C142.781 51.8529 142.818 51.8401 142.862 51.8243C142.875 51.82 142.888 51.8154 142.901 51.8106C142.987 51.7803 143.099 51.7409 143.237 51.6969C143.557 51.5951 144.019 51.4688 144.626 51.3773C145.84 51.1942 147.637 51.1498 150.037 51.7194L150.037 51.7195L150.039 51.72C151.549 51.9881 153.104 51.7941 154.501 51.1637C156.907 50.2812 159.516 50.0942 162.025 50.6244C163.756 51.0716 164.962 51.4736 165.782 51.915C166.601 52.3555 167.03 52.8324 167.214 53.4281L167.557 54.5466L167.557 54.5467L167.559 54.5517C170.623 61.6958 173.097 69.0767 174.957 76.6211L174.957 76.6211L174.959 76.6261C177.049 82.4237 178.065 91.1452 178.559 98.4218C178.805 102.059 178.921 105.334 178.976 107.699C179.003 108.882 179.015 109.837 179.02 110.497C179.022 110.827 179.023 111.083 179.023 111.256C179.023 111.343 179.023 111.409 179.023 111.453L179.023 111.503L179.023 111.516L179.023 111.519V111.52C179.023 111.52 179.023 111.52 179.073 111.52L179.022 111.52L179.023 111.525C179.071 112.02 179.3 112.674 179.647 113.42C179.995 114.168 180.463 115.013 180.992 115.891C182.051 117.647 183.359 119.538 184.447 121.052C185.686 122.784 187.152 124.344 188.807 125.689L188.838 125.65L188.807 125.689C191.901 128.194 193.671 130.21 194.667 131.599C195.165 132.293 195.47 132.83 195.65 133.193C195.74 133.374 195.798 133.512 195.834 133.604C195.852 133.65 195.865 133.685 195.873 133.708C195.877 133.719 195.879 133.728 195.881 133.733L195.883 133.739L195.884 133.741L195.884 133.741L195.882 133.742L195.889 133.752C206.281 151.414 211.38 157.179 213.634 159.045L213.635 159.046C215.735 160.702 217.573 162.663 219.086 164.864C220.884 167.573 221.776 169.806 221.927 171.631C222.078 173.454 221.49 174.871 220.321 175.953C219.149 177.037 217.39 177.788 215.195 178.267C213.001 178.746 210.375 178.952 207.475 178.95C195.873 178.941 179.906 175.602 169.65 173.123C163.191 171.552 157.327 168.15 152.768 163.329L140.331 150.165L140.33 150.165C139.673 149.488 139.073 148.758 138.539 147.981C137.066 145.828 134.303 143.843 131.461 142.21C128.618 140.576 125.69 139.292 123.88 138.544L123.861 138.59L123.88 138.544C122.73 138.069 121.632 137.479 120.602 136.782L120.602 136.782C119.469 136.034 118.148 135.283 116.647 134.429C111.637 131.58 104.623 127.59 95.9124 118.797C95.3722 118.25 94.5555 117.124 93.5386 115.677C93.3054 115.345 93.0617 114.996 92.8086 114.634C91.9599 113.419 91.005 112.052 89.9807 110.655C87.3225 107.029 84.1906 103.189 81.2204 101.258C77.2902 98.6958 71.9626 92.9319 68.8288 89.3632L68.8285 89.3629C67.1164 87.4462 65.1188 85.8029 62.9056 84.4904C58.1816 81.6205 56.3118 79.1904 55.6199 77.4852C55.274 76.6328 55.222 75.9605 55.2554 75.503C55.2721 75.2741 55.3103 75.0987 55.3439 74.9811C55.3608 74.9222 55.3765 74.8779 55.3879 74.8485C55.3936 74.8338 55.3982 74.8228 55.4013 74.8157L55.4021 74.8139L55.4034 74.8127L55.4297 74.789C55.4531 74.7681 55.4882 74.7373 55.5348 74.6978C55.6279 74.6189 55.767 74.5054 55.95 74.3676C56.3161 74.092 56.8578 73.7193 57.5599 73.3316C58.964 72.5561 61.0086 71.7209 63.5703 71.4825C68.6904 71.006 75.8903 72.9125 84.182 82.482C92.7908 92.4102 98.3756 96.6185 101.788 98.4829L101.788 98.4831C102.257 98.7324 102.783 98.8569 103.314 98.8446C103.846 98.8322 104.365 98.6834 104.822 98.4126C105.279 98.1418 105.658 97.7581 105.922 97.2987C106.186 96.8392 106.327 96.3196 106.331 95.7901V95.7897C106.331 93.0697 106.316 89.2746 106.174 85.5926C106.032 81.9117 105.763 78.3399 105.254 76.0683C104.526 72.8278 102.802 67.1975 101.261 62.3791C100.49 59.9696 99.7648 57.7624 99.2322 56.1576C98.9659 55.3553 98.7478 54.7035 98.5962 54.2523C98.5204 54.0267 98.4613 53.8512 98.4211 53.7321L98.3753 53.5966L98.3636 53.5621L98.3606 53.5533L98.3599 53.5511L98.3597 53.5506C98.3597 53.5505 98.3597 53.5504 98.3123 53.5664L98.3597 53.5504L98.3596 53.5501C97.2243 50.2642 95.2555 45.0414 93.5708 40.6408C92.7284 38.4404 91.957 36.4453 91.3961 35.0003C91.1157 34.2778 90.8879 33.6928 90.7302 33.2884L90.5485 32.8227L90.5011 32.7016L90.4891 32.6707L90.486 32.6629L90.4853 32.661L90.4851 32.6605C90.485 32.6604 90.485 32.6603 90.4384 32.6785ZM90.4384 32.6785L90.4845 32.6592L90.485 32.6603L90.4384 32.6785ZM213.666 159.007C211.419 157.147 206.324 151.389 195.932 133.727L213.666 159.007ZM213.666 159.007C215.77 160.666 217.611 162.63 219.128 164.835L213.666 159.007Z" fill="#F9C8A3" stroke="#795438" stroke-width="0.1"/>
<defs>
<filter id="filter0_f" x="0" y="9.69351" width="221.746" height="170.006" filterUnits="userSpaceOnUse" color-interpolation-filters="sRGB">
<feFlood flood-opacity="0" result="BackgroundImageFix"/>
<feBlend mode="normal" in="SourceGraphic" in2="BackgroundImageFix" result="shape"/>
<feGaussianBlur stdDeviation="1" result="effect1_foregroundBlur"/>
</filter>
<linearGradient id="paint0_linear" x1="45.2788" y1="22.4875" x2="214.006" y2="254.287" gradientUnits="userSpaceOnUse">
<stop stop-color="#B4D1FA" stop-opacity="0"/>
<stop offset="1" stop-opacity="0.2"/>
</linearGradient>
</defs>
</svg>

<svg width="222" height="180" fill="none" xmlns="http://www.w3.org/2000/svg"><g filter="url(#filter0_f)"><path d="M66.016 11.694L2 26.084l103.231 110.698c17.582 17.99 102.201 46.479 114.515 39.968L66.016 11.693z" fill="url(#paint0_linear)"/></g><path d="M90.438 32.678a.678.678 0 00.046-.02h0l-.001-.003-.005-.011-.02-.047-.075-.18a521.154 521.154 0 01-1.322-3.188 663.222 663.222 0 01-3.18-7.862c-1.17-2.955-2.362-6.04-3.301-8.65-.94-2.61-1.625-4.74-1.787-5.785-.321-2.078.806-3.743 2.023-4.894a11.3 11.3 0 012.499-1.77l.01-.005a6.716 6.716 0 015.651 1.089h0l.003.001c.386.248.862.775 1.4 1.516.538.74 1.135 1.686 1.763 2.766 1.255 2.16 2.634 4.85 3.914 7.479a276.838 276.838 0 014.348 9.395l.281.639.073.168.018.043.005.01.001.003h.001l.045-.019-.045.02.001.003.045-.023-.045.023h0l.001.002.004.008.016.033.064.126.246.491a670.556 670.556 0 014.067 8.297c2.529 5.256 5.721 12.064 8.369 18.274l.046-.02-.046.02c2.499 5.854 3.575 8.94 4.14 10.561.126.361.226.65.312.88.117.316.207.527.296.666.091.142.183.213.305.243a1.4 1.4 0 00.374.013l.056-.002c.178-.008.404-.013.705.02l.033.004.016-.028-.043-.025.043.025h0l.001-.001.001-.003.007-.012.028-.047a23.735 23.735 0 01.516-.827c.35-.538.848-1.26 1.438-1.996.59-.737 1.271-1.487 1.988-2.083.717-.596 1.466-1.034 2.192-1.153a21.401 21.401 0 014.329-.188l.003-.05-.003.05a5.836 5.836 0 003.696-1.057c.993-.694 2.292-1.576 3.533-2.31a19.903 19.903 0 011.771-.945c.543-.25 1.023-.418 1.396-.468a.373.373 0 00.068-.013 2.092 2.092 0 00.149-.05c.086-.03.198-.07.336-.114a8.95 8.95 0 011.389-.32c1.214-.183 3.011-.227 5.411.342h0l.002.001a7.612 7.612 0 004.462-.556 13.656 13.656 0 017.524-.54c1.731.448 2.937.85 3.757 1.291.819.44 1.248.917 1.432 1.513l.343 1.119h0l.002.005a142.574 142.574 0 017.398 22.07h0l.002.004c2.09 5.798 3.106 14.52 3.6 21.796a212.77 212.77 0 01.461 12.075l.003.759v.264h.05-.051l.001.005c.048.495.277 1.149.624 1.895.348.748.816 1.593 1.345 2.471 1.059 1.756 2.367 3.647 3.455 5.161a23.874 23.874 0 004.36 4.637l.031-.039-.031.039c3.094 2.505 4.864 4.521 5.86 5.91.498.694.803 1.231.983 1.594a5.08 5.08 0 01.223.515l.008.025.002.006.001.002h0l-.002.001.007.01c10.392 17.662 15.491 23.427 17.745 25.293l.001.001a26.602 26.602 0 015.451 5.818c1.798 2.709 2.69 4.942 2.841 6.767.151 1.823-.437 3.24-1.606 4.322-1.172 1.084-2.931 1.835-5.126 2.314-2.194.479-4.82.685-7.72.683-11.602-.009-27.569-3.348-37.825-5.827a34.434 34.434 0 01-16.882-9.794l-12.437-13.164h-.001a16.805 16.805 0 01-1.791-2.184c-1.473-2.153-4.236-4.138-7.078-5.771-2.843-1.634-5.771-2.918-7.581-3.666l-.019.046.019-.046a18.341 18.341 0 01-3.278-1.762h0c-1.133-.748-2.454-1.499-3.955-2.353-5.01-2.849-12.024-6.839-20.735-15.632-.54-.547-1.357-1.673-2.373-3.12-.234-.332-.477-.681-.73-1.043a210.39 210.39 0 00-2.828-3.979c-2.658-3.626-5.79-7.466-8.76-9.397-3.93-2.562-9.258-8.326-12.392-11.895h0a25.126 25.126 0 00-5.923-4.873c-4.724-2.87-6.594-5.3-7.286-7.005-.346-.852-.398-1.525-.365-1.982.017-.229.055-.404.089-.522a1.558 1.558 0 01.057-.165l.001-.002.001-.001.027-.024c.023-.02.058-.052.105-.091a9.3 9.3 0 01.415-.33c.366-.276.908-.649 1.61-1.036a15.406 15.406 0 016.01-1.85c5.12-.476 12.32 1.43 20.612 11 8.609 9.928 14.194 14.136 17.606 16v.001a3.1 3.1 0 004.134-1.184c.264-.46.405-.98.409-1.509v0c0-2.72-.015-6.515-.157-10.197-.142-3.681-.411-7.253-.92-9.525-.728-3.24-2.452-8.87-3.993-13.689a619.587 619.587 0 00-2.84-8.647l-.046-.135-.011-.035-.003-.009-.001-.002h0l-.048.015.048-.016h0c-1.136-3.286-3.105-8.509-4.79-12.91a1326.297 1326.297 0 00-2.84-7.352l-.181-.465-.048-.121-.012-.031-.003-.008v-.002h0l-.048.017zm0 0l.046-.019.001.001-.047.019zm123.228 126.329c-2.247-1.86-7.342-7.618-17.734-25.28l17.734 25.28zm0 0a26.678 26.678 0 015.462 5.828l-5.462-5.828z" fill="#F9C8A3" stroke="#795438" stroke-width=".1"/><defs><linearGradient id="paint0_linear" x1="45.279" y1="22.488" x2="214.006" y2="254.287" gradientUnits="userSpaceOnUse"><stop stop-color="#B4D1FA" stop-opacity="0"/><stop offset="1" stop-opacity=".2"/></linearGradient><filter id="filter0_f" x="0" y="9.694" width="221.746" height="170.006" filterUnits="userSpaceOnUse" color-interpolation-filters="sRGB"><feFlood flood-opacity="0" result="BackgroundImageFix"/><feBlend in="SourceGraphic" in2="BackgroundImageFix" result="shape"/><feGaussianBlur stdDeviation="1" result="effect1_foregroundBlur"/></filter></defs></svg>
